Numix-Light/16/status/indicator-keyboard-Hr-4.svg

<?xml version="1.0" encoding="UTF-8" standalone="no"?>
<svg
   xmlns:dc="http://purl.org/dc/elements/1.1/"
   xmlns:cc="http://creativecommons.org/ns#"
   xmlns:rdf="http://www.w3.org/1999/02/22-rdf-syntax-ns#"
   xmlns:svg="http://www.w3.org/2000/svg"
   xmlns="http://www.w3.org/2000/svg"
   xmlns:sodipodi="http://sodipodi.sourceforge.net/DTD/sodipodi-0.dtd"
   xmlns:inkscape="http://www.inkscape.org/namespaces/inkscape"
   viewBox="0 0 16 16"
   id="svg2"
   version="1.1"
   inkscape:version="0.91 r13725"
   sodipodi:docname="indicator-keyboard-Hr-4.svg">
  <metadata
     id="metadata14">
    <rdf:RDF>
      <cc:Work
         rdf:about="">
        <dc:format>image/svg+xml</dc:format>
        <dc:type
           rdf:resource="http://purl.org/dc/dcmitype/StillImage" />
      </cc:Work>
    </rdf:RDF>
  </metadata>
  <defs
     id="defs12" />
  <sodipodi:namedview
     pagecolor="#ffffff"
     bordercolor="#666666"
     borderopacity="1"
     objecttolerance="10"
     gridtolerance="10"
     guidetolerance="10"
     inkscape:pageopacity="0"
     inkscape:pageshadow="2"
     inkscape:window-width="640"
     inkscape:window-height="480"
     id="namedview10"
     showgrid="false"
     inkscape:zoom="14.75"
     inkscape:cx="8"
     inkscape:cy="8"
     inkscape:window-x="65"
     inkscape:window-y="24"
     inkscape:window-maximized="0"
     inkscape:current-layer="svg2" />
  <path
     style="fill:#353535;fill-opacity:1"
     d="M 1.5996094 0 C 0.71320937 2.9605947e-16 0 0.71320937 0 1.5996094 L 0 14.400391 C 2.9605947e-16 15.286791 0.71320937 16 1.5996094 16 L 14.400391 16 C 15.286791 16 16 15.286791 16 14.400391 L 16 1.5996094 C 16 0.71320937 15.286791 0 14.400391 0 L 1.5996094 0 z M 2.1113281 4.859375 L 2.7226562 4.859375 L 2.7226562 7.5683594 L 6.1074219 7.5683594 L 6.1074219 4.859375 L 6.71875 4.859375 L 6.71875 11.095703 L 6.1074219 11.095703 L 6.1074219 8.0996094 L 2.7226562 8.0996094 L 2.7226562 11.095703 L 2.1113281 11.095703 L 2.1113281 4.859375 z M 9.8828125 6.3535156 C 10.074812 6.3535156 10.253875 6.3684375 10.421875 6.3984375 C 10.595875 6.4284375 10.71525 6.4582812 10.78125 6.4882812 L 10.666016 6.9921875 C 10.618016 6.9681875 10.519141 6.9439219 10.369141 6.9199219 C 10.225141 6.8899219 10.032969 6.875 9.7929688 6.875 C 9.5409687 6.875 9.3356875 6.8936875 9.1796875 6.9296875 C 9.0296875 6.9656875 8.9308125 6.9955312 8.8828125 7.0195312 L 8.8828125 11.095703 L 8.2988281 11.095703 L 8.2988281 6.6582031 C 8.4488281 6.5922031 8.6559219 6.5269375 8.9199219 6.4609375 C 9.1839219 6.3889375 9.5048125 6.3535156 9.8828125 6.3535156 z M 12.988281 8.8417969 L 13.384766 8.8417969 L 13.384766 11.486328 L 13.888672 11.486328 L 13.888672 11.796875 L 13.384766 11.796875 L 13.384766 12.896484 L 13.011719 12.896484 L 13.011719 11.796875 L 11.173828 11.796875 L 11.173828 11.5625 C 11.244028 11.3753 11.341997 11.163688 11.466797 10.929688 C 11.595497 10.695687 11.740491 10.456638 11.900391 10.210938 C 12.060291 9.9652374 12.232722 9.7261874 12.419922 9.4921875 C 12.607122 9.2542875 12.797181 9.0367969 12.988281 8.8417969 z M 13.011719 9.2695312 C 12.875219 9.4099313 12.736103 9.5706063 12.595703 9.7539062 C 12.455303 9.9372063 12.320106 10.129225 12.191406 10.328125 C 12.066606 10.523125 11.950997 10.719069 11.841797 10.917969 C 11.732597 11.116869 11.640506 11.306928 11.566406 11.486328 L 13.011719 11.486328 L 13.011719 9.2695312 z "
     id="path4" />
</svg>

<svg xmlns="http://www.w3.org/2000/svg" viewBox="0 0 16 16">
 <path d="m 1.6 0 c -0.886 0 -1.6 0.713 -1.6 1.6 l 0 12.801 c 0 0.886 0.713 1.6 1.6 1.6 l 12.801 0 c 0.886 0 1.6 -0.713 1.6 -1.6 l 0 -12.801 c 0 -0.886 -0.713 -1.6 -1.6 -1.6 l -12.801 0 z m 0.512 4.859 l 0.611 0 l 0 2.709 l 3.385 0 l 0 -2.709 l 0.611 0 l 0 6.236 l -0.611 0 l 0 -2.996 l -3.385 0 l 0 2.996 l -0.611 0 l 0 -6.236 z m 7.771 1.494 c 0.192 0 0.371 0.015 0.539 0.045 c 0.174 0.03 0.293 0.06 0.359 0.09 l -0.115 0.504 c -0.048 -0.024 -0.147 -0.048 -0.297 -0.072 c -0.144 -0.03 -0.336 -0.045 -0.576 -0.045 c -0.252 0 -0.457 0.019 -0.613 0.055 c -0.15 0.036 -0.249 0.066 -0.297 0.09 l 0 4.076 l -0.584 0 l 0 -4.437 c 0.15 -0.066 0.357 -0.131 0.621 -0.197 c 0.264 -0.072 0.585 -0.107 0.963 -0.107 z m 3.105 2.488 l 0.396 0 l 0 2.645 l 0.504 0 l 0 0.311 l -0.504 0 l 0 1.1 l -0.373 0 l 0 -1.1 l -1.838 0 l 0 -0.234 c 0.07 -0.187 0.168 -0.399 0.293 -0.633 c 0.129 -0.234 0.274 -0.473 0.434 -0.719 c 0.16 -0.246 0.332 -0.485 0.52 -0.719 c 0.187 -0.238 0.377 -0.455 0.568 -0.65 z m 0.023 0.428 c -0.136 0.14 -0.276 0.301 -0.416 0.484 c -0.14 0.183 -0.276 0.375 -0.404 0.574 c -0.125 0.195 -0.24 0.391 -0.35 0.59 c -0.109 0.199 -0.201 0.389 -0.275 0.568 l 1.445 0 l 0 -2.217 z" style="fill:#353535;fill-opacity:1"/>
</svg>
